X: 312
T: Mr James Campbell's Strathspey
C: by J Pringle
B: John Pringle "Collection of Reels Strathspeys & Jigs", 1801 p.31#2
Z: 2011 John Chambers <jc:trillian.mit.edu>
R: strathspey
M: C
L: 1/8
K: D
V: 1
G |\
F<A{c}d2 ~B>cd2 | A<F~F>A BE~E>G |\
F<Ad2 c>deg | f>d (f/e/).d/.c/ {c}d2D :|
g |\
f>da>d c<ee>g | f>d (e/d/c/B/) cAAg |\
f>df<a g<be>g | f<ae>g f<dd>g |
f>da>d ceeg | f>d (e/d/c/B/) cAAG |\
F>DD<d c<eA>g | fd f/e/d/c/ d2D |]
V: 2 clef=bass middle=d
z |
[a2f2d2][a2f2d2] [b2g2d2][b2g2d2] | [a2f2d2][a2f2d2] [a2e2c2][a2e2c2] |\
[a2f2d2][a2f2d2] [a2e2c2][a2e2c2] | d2A2 D2D :|
z |
[a2f2d2][a2f2d2] [a2e2c2][a2e2c2] | [a2f2d2][a2f2d2] [a2e2c2][a2e2c2] |\
[a2f2d2][a2d2f2] [b2g2d2][a2f2d2] | d'2a2 d2d2 |
[a2f2d2][a2f2d2] [a2e2c2][a2e2c2] | [a2f2d2][a2f2d2] [a2e2c2][a2e2c2] |\
d2D2 a2a2 | d2A2 D2d |]

%%sep 2 1 500

